svg/meter_face.svg

<svg xmlns="http://www.w3.org/2000/svg" width="24" height="24" viewBox="0 0 24 24"><path d="M19 3H5a2 2 0 0 0-2 2v14a2 2 0 0 0 2 2h14a2 2 0 0 0 2-2V5a2 2 0 0 0-2-2zm-9 16a1 1 0 1 1 1-1 1 1 0 0 1-1 1zm4 0a1 1 0 1 1 1-1 1 1 0 0 1-1 1zm4 0a1 1 0 1 1 1-1 1 1 0 0 1-1 1zm1-4H5V5h14zm-2-6h-5V7h5zm0 4H9v-2h8z" fill-rule="evenodd"/><path fill="none" d="M0 0h24v24H0z"/></svg>

<svg xmlns="http://www.w3.org/2000/svg" width="24" height="24" viewBox="0 0 24 24"><path d="M19,3H5A2,2,0,0,0,3,5V19a2,2,0,0,0,2,2H19a2,2,0,0,0,2-2V5A2,2,0,0,0,19,3ZM10,19a1,1,0,1,1,1-1A1,1,0,0,1,10,19Zm4,0a1,1,0,1,1,1-1A1,1,0,0,1,14,19Zm4,0a1,1,0,1,1,1-1A1,1,0,0,1,18,19Zm1-4H5V5H19ZM17,9H12V7h5Zm0,4H9V11h8Z" fill-rule="evenodd"/><rect width="24" height="24" fill="none"/></svg>
